server/uploads/oleo.svg

<svg width="64" height="64" viewBox="0 0 64 64" fill="none" xmlns="http://www.w3.org/2000/svg">
<path d="M58 28V48H26V28H58ZM47.5 39.4453C47.5 38.5091 47.0571 37.6089 46.2446 36.8818L42 32.5455L38.2554 36.8818C37.4429 37.6089 37 38.5091 37 39.4453C37 41.6634 38.0451 44 41.0481 44H42.5C44.0018 44 45.5817 43.0089 46.5661 42.2818C47.5505 41.5547 47.5 40.5546 47.5 39.4453Z" fill="#409B70"/>
<path d="M25.8063 22.7097V30.9058C23.1843 30.555 22.8436 28.9033 19.6027 28.9033C15.9898 28.9033 15.9898 30.9678 12.3769 30.9678C9.18684 30.9678 8.81537 29.3574 6.28613 28.9859C6.44137 26.8594 6.80226 24.7536 7.35972 22.7097H25.8063Z" fill="#409B70"/>
<path d="M25.8065 52.6451V54.7096H5.6875C5.71875 54.6376 5.7495 54.565 5.78075 54.503L6.52369 53.0272C7.65927 50.7354 8.25806 48.2167 8.25806 45.6567C8.25806 44.1804 8.05141 42.7147 7.66986 41.2903H7.65927C7.65927 41.2389 7.63861 41.187 7.62853 41.1356L7.48387 40.6401C6.937 38.7197 6.55494 36.7585 6.24496 33.1043H6.25554C8.81552 33.4763 9.17692 35.0967 12.377 35.0967C15.9899 35.0967 15.9899 33.0322 19.6028 33.0322C22.8438 33.0322 23.1845 34.6839 25.8065 35.0347V52.6451Z" fill="#409B70"/>
<mask id="path-5-inside-1" fill="white">
<path d="M56.9807 16.9289L51.6128 12.9032V8.25806H53.6773V3.09677C53.6773 1.38962 52.2877 0 50.5805 0H34.0644C32.3572 0 30.9676 1.38962 30.9676 3.09677V8.25806H33.0321V12.9032L27.6642 16.9289C27.4288 17.1053 27.207 17.2964 26.9974 17.499C26.2937 15.9007 25.4676 14.3558 24.5326 12.8856L22.7096 10.0222V8.25806H24.7741V3.09677C24.7741 1.38962 23.3844 0 21.6773 0H13.4192C11.7121 0 10.3225 1.38962 10.3225 3.09677V8.25806H12.387V10.0222L10.5609 12.8906C7.0286 18.4425 5.16116 24.8558 5.16116 31.4355C5.16116 34.6457 5.60824 37.8382 6.4908 40.9259L6.63193 41.4204C7.02659 42.8004 7.22568 44.2273 7.22568 45.6608C7.22568 48.0444 6.66217 50.4309 5.59564 52.5635L4.85471 54.0469C4.37991 54.9955 4.12891 56.06 4.12891 57.122C4.12891 60.9148 7.21409 64 11.0069 64H11.9596C13.1778 64 14.3214 63.5262 15.1823 62.6653C15.6521 62.1946 16.2776 61.9355 16.9434 61.9355H18.1531C18.8189 61.9355 19.4444 62.1946 19.9152 62.6653C20.7751 63.5262 21.9187 64 23.137 64H24.0896C25.4893 64 26.8325 63.5539 27.9722 62.7697C29.1239 63.5459 30.5095 64 31.9999 64H52.645C56.6294 64 59.8708 60.7576 59.8708 56.7742V22.7097C59.8708 20.4471 58.7902 18.2863 56.9807 16.9289ZM57.8063 24.7742V55.7419H26.8386V53.6774V51.6129V22.7097C26.8386 21.9914 26.9984 21.2903 27.2816 20.6452H57.3623C57.6465 21.2903 57.8063 21.9914 57.8063 22.7097V24.7742ZM7.22568 31.4355C7.22568 31.0625 7.25239 30.692 7.26499 30.3206C7.60975 30.4662 7.92225 30.6426 8.25592 30.8327C9.21459 31.3795 10.3008 31.999 12.3799 31.999C14.4596 31.999 15.5457 31.3785 16.5044 30.8306C17.3461 30.3503 18.0725 29.9355 19.6047 29.9355C21.1385 29.9355 21.8653 30.3503 22.7075 30.8327C23.2771 31.1578 23.9091 31.5146 24.7731 31.748V33.7011C24.4076 33.5514 24.0805 33.3679 23.7302 33.1683C22.7736 32.6205 21.6864 32 19.6047 32C17.5246 32 16.4384 32.6205 15.4797 33.1683C14.6385 33.6497 13.9127 34.0645 12.3799 34.0645C10.8477 34.0645 10.1213 33.6507 9.2776 33.1694C8.71711 32.8498 8.09564 32.5005 7.25441 32.2671C7.24735 31.9899 7.22568 31.7132 7.22568 31.4355ZM33.0321 3.09677C33.0321 2.52823 33.4958 2.06452 34.0644 2.06452H50.5805C51.1491 2.06452 51.6128 2.52823 51.6128 3.09677V6.19355H33.0321V3.09677ZM49.5483 8.25806V12.3871H35.0966V8.25806H49.5483ZM34.4081 14.4516H50.2358L55.7408 18.5806H28.9031L34.4081 14.4516ZM12.387 3.09677C12.387 2.52823 12.8507 2.06452 13.4192 2.06452H21.6773C22.2458 2.06452 22.7096 2.52823 22.7096 3.09677V6.19355H12.387V3.09677ZM12.3033 13.9995L14.4515 10.623V8.25806H20.645V10.624L22.7912 13.9955C23.8845 15.7132 24.8114 17.5444 25.5639 19.4395C25.0538 20.443 24.7741 21.563 24.7741 22.7097V29.5721C24.4086 29.4224 24.0815 29.2389 23.7317 29.0393C22.7736 28.4914 21.6864 27.871 19.6047 27.871C17.5246 27.871 16.4384 28.4914 15.4797 29.0393C14.6385 29.5207 13.9127 29.9355 12.3799 29.9355C10.8487 29.9355 10.1213 29.5207 9.28012 29.0393C8.75441 28.7399 8.17225 28.4138 7.40814 28.1825C7.91318 23.1492 9.56691 18.2989 12.3033 13.9995ZM23.137 61.9355C22.4711 61.9355 21.8456 61.6764 21.3749 61.2056C20.515 60.3448 19.3713 59.871 18.1531 59.871H16.9434C15.7252 59.871 14.5815 60.3448 13.7206 61.2056C13.2509 61.6764 12.6254 61.9355 11.9596 61.9355H11.0069C8.3527 61.9355 6.19342 59.7762 6.19342 57.122C6.19342 56.379 6.36883 55.6346 6.70149 54.9698L7.44241 53.4864C8.65108 51.0701 9.2902 48.3644 9.2902 45.6608C9.2902 44.5388 9.17477 43.4219 8.96106 42.3226L8.44997 40.2581C7.91822 38.376 7.57346 36.4511 7.38999 34.5096C7.68586 34.6436 7.96358 34.7964 8.25592 34.9627C9.21459 35.5086 10.3008 36.129 12.3799 36.129C14.4596 36.129 15.5457 35.5076 16.5044 34.9607C17.3461 34.4793 18.0725 34.0645 19.6047 34.0645C21.1385 34.0645 21.8653 34.4793 22.7075 34.9607C23.2771 35.2868 23.9091 35.6436 24.7731 35.877V56.7742C24.7731 58.5 25.3829 60.0857 26.3965 61.3296C25.6949 61.7167 24.9061 61.9355 24.0896 61.9355H23.137ZM52.645 61.9355H31.9999C29.5079 61.9355 27.4228 60.1588 26.9429 57.8064H57.702C57.2221 60.1588 55.137 61.9355 52.645 61.9355Z"/>
</mask>
<path d="M56.9807 16.9289L51.6128 12.9032V8.25806H53.6773V3.09677C53.6773 1.38962 52.2877 0 50.5805 0H34.0644C32.3572 0 30.9676 1.38962 30.9676 3.09677V8.25806H33.0321V12.9032L27.6642 16.9289C27.4288 17.1053 27.207 17.2964 26.9974 17.499C26.2937 15.9007 25.4676 14.3558 24.5326 12.8856L22.7096 10.0222V8.25806H24.7741V3.09677C24.7741 1.38962 23.3844 0 21.6773 0H13.4192C11.7121 0 10.3225 1.38962 10.3225 3.09677V8.25806H12.387V10.0222L10.5609 12.8906C7.0286 18.4425 5.16116 24.8558 5.16116 31.4355C5.16116 34.6457 5.60824 37.8382 6.4908 40.9259L6.63193 41.4204C7.02659 42.8004 7.22568 44.2273 7.22568 45.6608C7.22568 48.0444 6.66217 50.4309 5.59564 52.5635L4.85471 54.0469C4.37991 54.9955 4.12891 56.06 4.12891 57.122C4.12891 60.9148 7.21409 64 11.0069 64H11.9596C13.1778 64 14.3214 63.5262 15.1823 62.6653C15.6521 62.1946 16.2776 61.9355 16.9434 61.9355H18.1531C18.8189 61.9355 19.4444 62.1946 19.9152 62.6653C20.7751 63.5262 21.9187 64 23.137 64H24.0896C25.4893 64 26.8325 63.5539 27.9722 62.7697C29.1239 63.5459 30.5095 64 31.9999 64H52.645C56.6294 64 59.8708 60.7576 59.8708 56.7742V22.7097C59.8708 20.4471 58.7902 18.2863 56.9807 16.9289ZM57.8063 24.7742V55.7419H26.8386V53.6774V51.6129V22.7097C26.8386 21.9914 26.9984 21.2903 27.2816 20.6452H57.3623C57.6465 21.2903 57.8063 21.9914 57.8063 22.7097V24.7742ZM7.22568 31.4355C7.22568 31.0625 7.25239 30.692 7.26499 30.3206C7.60975 30.4662 7.92225 30.6426 8.25592 30.8327C9.21459 31.3795 10.3008 31.999 12.3799 31.999C14.4596 31.999 15.5457 31.3785 16.5044 30.8306C17.3461 30.3503 18.0725 29.9355 19.6047 29.9355C21.1385 29.9355 21.8653 30.3503 22.7075 30.8327C23.2771 31.1578 23.9091 31.5146 24.7731 31.748V33.7011C24.4076 33.5514 24.0805 33.3679 23.7302 33.1683C22.7736 32.6205 21.6864 32 19.6047 32C17.5246 32 16.4384 32.6205 15.4797 33.1683C14.6385 33.6497 13.9127 34.0645 12.3799 34.0645C10.8477 34.0645 10.1213 33.6507 9.2776 33.1694C8.71711 32.8498 8.09564 32.5005 7.25441 32.2671C7.24735 31.9899 7.22568 31.7132 7.22568 31.4355ZM33.0321 3.09677C33.0321 2.52823 33.4958 2.06452 34.0644 2.06452H50.5805C51.1491 2.06452 51.6128 2.52823 51.6128 3.09677V6.19355H33.0321V3.09677ZM49.5483 8.25806V12.3871H35.0966V8.25806H49.5483ZM34.4081 14.4516H50.2358L55.7408 18.5806H28.9031L34.4081 14.4516ZM12.387 3.09677C12.387 2.52823 12.8507 2.06452 13.4192 2.06452H21.6773C22.2458 2.06452 22.7096 2.52823 22.7096 3.09677V6.19355H12.387V3.09677ZM12.3033 13.9995L14.4515 10.623V8.25806H20.645V10.624L22.7912 13.9955C23.8845 15.7132 24.8114 17.5444 25.5639 19.4395C25.0538 20.443 24.7741 21.563 24.7741 22.7097V29.5721C24.4086 29.4224 24.0815 29.2389 23.7317 29.0393C22.7736 28.4914 21.6864 27.871 19.6047 27.871C17.5246 27.871 16.4384 28.4914 15.4797 29.0393C14.6385 29.5207 13.9127 29.9355 12.3799 29.9355C10.8487 29.9355 10.1213 29.5207 9.28012 29.0393C8.75441 28.7399 8.17225 28.4138 7.40814 28.1825C7.91318 23.1492 9.56691 18.2989 12.3033 13.9995ZM23.137 61.9355C22.4711 61.9355 21.8456 61.6764 21.3749 61.2056C20.515 60.3448 19.3713 59.871 18.1531 59.871H16.9434C15.7252 59.871 14.5815 60.3448 13.7206 61.2056C13.2509 61.6764 12.6254 61.9355 11.9596 61.9355H11.0069C8.3527 61.9355 6.19342 59.7762 6.19342 57.122C6.19342 56.379 6.36883 55.6346 6.70149 54.9698L7.44241 53.4864C8.65108 51.0701 9.2902 48.3644 9.2902 45.6608C9.2902 44.5388 9.17477 43.4219 8.96106 42.3226L8.44997 40.2581C7.91822 38.376 7.57346 36.4511 7.38999 34.5096C7.68586 34.6436 7.96358 34.7964 8.25592 34.9627C9.21459 35.5086 10.3008 36.129 12.3799 36.129C14.4596 36.129 15.5457 35.5076 16.5044 34.9607C17.3461 34.4793 18.0725 34.0645 19.6047 34.0645C21.1385 34.0645 21.8653 34.4793 22.7075 34.9607C23.2771 35.2868 23.9091 35.6436 24.7731 35.877V56.7742C24.7731 58.5 25.3829 60.0857 26.3965 61.3296C25.6949 61.7167 24.9061 61.9355 24.0896 61.9355H23.137ZM52.645 61.9355H31.9999C29.5079 61.9355 27.4228 60.1588 26.9429 57.8064H57.702C57.2221 60.1588 55.137 61.9355 52.645 61.9355Z" fill="#000000" stroke="#000000" stroke-width="2" mask="url(#path-5-inside-1)"/>
<path d="M42.7066 33.2925L42.3225 32.8314L41.9383 33.2924L38.6242 37.2693C38.6241 37.2694 38.624 37.2695 38.6239 37.2696C38.6239 37.2696 38.6239 37.2697 38.6238 37.2697C38.0229 37.9896 37.6934 38.9029 37.6934 39.8403C37.6934 42.0552 39.4946 43.8549 41.709 43.8549H42.9369C45.1504 43.8549 46.9515 42.0551 46.9515 39.8403C46.9515 38.9028 46.622 37.9893 46.0197 37.2693C46.0196 37.2692 46.0195 37.2691 46.0194 37.269L42.7066 33.2925ZM42.9359 44.9194H41.708C38.9081 44.9194 36.6289 42.6403 36.6289 39.8403C36.6289 38.6544 37.0471 37.499 37.8053 36.5884C37.8054 36.5883 37.8054 36.5883 37.8055 36.5882L42.3224 31.1687L46.8383 36.587C46.8383 36.5871 46.8384 36.5871 46.8384 36.5872C47.598 37.5001 48.016 38.6545 48.016 39.8403C48.016 42.6402 45.7369 44.9194 42.9359 44.9194Z" fill="#000000" stroke="#000000"/>
</svg>

<?xml version="1.0" encoding="utf-8"?>
<!-- Generator: Adobe Illustrator 24.1.3, SVG Export Plug-In . SVG Version: 6.00 Build 0)  -->
<svg version="1.1" id="Camada_1" xmlns="http://www.w3.org/2000/svg" xmlns:xlink="http://www.w3.org/1999/xlink" x="0px" y="0px"
	 viewBox="0 0 64 64" style="enable-background:new 0 0 64 64;" xml:space="preserve">
<style type="text/css">
	.st0{fill:#409B70;}
	.st1{fill:#FFFFFF;filter:url(#Adobe_OpacityMaskFilter);}
	.st2{mask:url(#path-5-inside-1_1_);fill:#322153;stroke:#322153;stroke-width:2;}
	.st3{fill:#322153;stroke:#322153;}
</style>
<path class="st0" d="M58,28v20H26V28H58z M47.5,39.4c0-0.9-0.4-1.8-1.3-2.6L42,32.5l-3.7,4.3c-0.8,0.7-1.3,1.6-1.3,2.6
	c0,2.2,1,4.6,4,4.6h1.5c1.5,0,3.1-1,4.1-1.7C47.6,41.6,47.5,40.6,47.5,39.4z"/>
<path class="st0" d="M25.8,22.7v8.2c-2.6-0.4-3-2-6.2-2C16,28.9,16,31,12.4,31c-3.2,0-3.6-1.6-6.1-2c0.2-2.1,0.5-4.2,1.1-6.3H25.8z"
	/>
<path class="st0" d="M25.8,52.6v2.1H5.7c0-0.1,0.1-0.1,0.1-0.2L6.5,53c1.1-2.3,1.7-4.8,1.7-7.4c0-1.5-0.2-2.9-0.6-4.4h0
	c0-0.1,0-0.1,0-0.2l-0.1-0.5c-0.5-1.9-0.9-3.9-1.2-7.5h0c2.6,0.4,2.9,2,6.1,2c3.6,0,3.6-2.1,7.2-2.1c3.2,0,3.6,1.7,6.2,2V52.6z"/>
<defs>
	<filter id="Adobe_OpacityMaskFilter" filterUnits="userSpaceOnUse" x="3.1" y="-1" width="57.7" height="66">
		<feColorMatrix  type="matrix" values="1 0 0 0 0  0 1 0 0 0  0 0 1 0 0  0 0 0 1 0"/>
	</filter>
</defs>
<mask maskUnits="userSpaceOnUse" x="3.1" y="-1" width="57.7" height="66" id="path-5-inside-1_1_">
	<path class="st1" d="M57,16.9l-5.4-4V8.3h2.1V3.1c0-1.7-1.4-3.1-3.1-3.1H34.1C32.4,0,31,1.4,31,3.1v5.2H33v4.6l-5.4,4
		c-0.2,0.2-0.5,0.4-0.7,0.6c-0.7-1.6-1.5-3.1-2.5-4.6L22.7,10V8.3h2.1V3.1c0-1.7-1.4-3.1-3.1-3.1h-8.3c-1.7,0-3.1,1.4-3.1,3.1v5.2
		h2.1V10l-1.8,2.9c-3.5,5.6-5.4,12-5.4,18.5c0,3.2,0.4,6.4,1.3,9.5l0.1,0.5c0.4,1.4,0.6,2.8,0.6,4.2c0,2.4-0.6,4.8-1.6,6.9L4.9,54
		c-0.5,0.9-0.7,2-0.7,3.1c0,3.8,3.1,6.9,6.9,6.9h1c1.2,0,2.4-0.5,3.2-1.3c0.5-0.5,1.1-0.7,1.8-0.7h1.2c0.7,0,1.3,0.3,1.8,0.7
		c0.9,0.9,2,1.3,3.2,1.3h1c1.4,0,2.7-0.4,3.9-1.2c1.2,0.8,2.5,1.2,4,1.2h20.6c4,0,7.2-3.2,7.2-7.2V22.7C59.9,20.4,58.8,18.3,57,16.9
		z M57.8,24.8v31h-31v-2.1v-2.1V22.7c0-0.7,0.2-1.4,0.4-2.1h30.1c0.3,0.6,0.4,1.3,0.4,2.1V24.8z M7.2,31.4c0-0.4,0-0.7,0-1.1
		c0.3,0.1,0.7,0.3,1,0.5c1,0.5,2,1.2,4.1,1.2c2.1,0,3.2-0.6,4.1-1.2c0.8-0.5,1.6-0.9,3.1-0.9c1.5,0,2.3,0.4,3.1,0.9
		c0.6,0.3,1.2,0.7,2.1,0.9v2c-0.4-0.1-0.7-0.3-1-0.5c-1-0.5-2-1.2-4.1-1.2c-2.1,0-3.2,0.6-4.1,1.2c-0.8,0.5-1.6,0.9-3.1,0.9
		c-1.5,0-2.3-0.4-3.1-0.9c-0.6-0.3-1.2-0.7-2-0.9C7.2,32,7.2,31.7,7.2,31.4z M33,3.1c0-0.6,0.5-1,1-1h16.5c0.6,0,1,0.5,1,1v3.1H33
		V3.1z M49.5,8.3v4.1H35.1V8.3H49.5z M34.4,14.5h15.8l5.5,4.1H28.9L34.4,14.5z M12.4,3.1c0-0.6,0.5-1,1-1h8.3c0.6,0,1,0.5,1,1v3.1
		H12.4V3.1z M12.3,14l2.1-3.4V8.3h6.2v2.4l2.1,3.4c1.1,1.7,2,3.5,2.8,5.4c-0.5,1-0.8,2.1-0.8,3.3v6.9c-0.4-0.1-0.7-0.3-1-0.5
		c-1-0.5-2-1.2-4.1-1.2c-2.1,0-3.2,0.6-4.1,1.2c-0.8,0.5-1.6,0.9-3.1,0.9c-1.5,0-2.3-0.4-3.1-0.9c-0.5-0.3-1.1-0.6-1.9-0.9
		C7.9,23.1,9.6,18.3,12.3,14z M23.1,61.9c-0.7,0-1.3-0.3-1.8-0.7c-0.9-0.9-2-1.3-3.2-1.3h-1.2c-1.2,0-2.4,0.5-3.2,1.3
		c-0.5,0.5-1.1,0.7-1.8,0.7h-1c-2.7,0-4.8-2.2-4.8-4.8c0-0.7,0.2-1.5,0.5-2.2l0.7-1.5c1.2-2.4,1.8-5.1,1.8-7.8
		c0-1.1-0.1-2.2-0.3-3.3l-0.5-2.1c-0.5-1.9-0.9-3.8-1.1-5.7C7.7,34.6,8,34.8,8.3,35c1,0.5,2,1.2,4.1,1.2c2.1,0,3.2-0.6,4.1-1.2
		c0.8-0.5,1.6-0.9,3.1-0.9c1.5,0,2.3,0.4,3.1,0.9c0.6,0.3,1.2,0.7,2.1,0.9v20.9c0,1.7,0.6,3.3,1.6,4.6c-0.7,0.4-1.5,0.6-2.3,0.6
		H23.1z M52.6,61.9H32c-2.5,0-4.6-1.8-5.1-4.1h30.8C57.2,60.2,55.1,61.9,52.6,61.9z"/>
</mask>
<path class="st2" d="M57,16.9l-5.4-4V8.3h2.1V3.1c0-1.7-1.4-3.1-3.1-3.1H34.1C32.4,0,31,1.4,31,3.1v5.2H33v4.6l-5.4,4
	c-0.2,0.2-0.5,0.4-0.7,0.6c-0.7-1.6-1.5-3.1-2.5-4.6L22.7,10V8.3h2.1V3.1c0-1.7-1.4-3.1-3.1-3.1h-8.3c-1.7,0-3.1,1.4-3.1,3.1v5.2
	h2.1V10l-1.8,2.9c-3.5,5.6-5.4,12-5.4,18.5c0,3.2,0.4,6.4,1.3,9.5l0.1,0.5c0.4,1.4,0.6,2.8,0.6,4.2c0,2.4-0.6,4.8-1.6,6.9L4.9,54
	c-0.5,0.9-0.7,2-0.7,3.1c0,3.8,3.1,6.9,6.9,6.9h1c1.2,0,2.4-0.5,3.2-1.3c0.5-0.5,1.1-0.7,1.8-0.7h1.2c0.7,0,1.3,0.3,1.8,0.7
	c0.9,0.9,2,1.3,3.2,1.3h1c1.4,0,2.7-0.4,3.9-1.2c1.2,0.8,2.5,1.2,4,1.2h20.6c4,0,7.2-3.2,7.2-7.2V22.7C59.9,20.4,58.8,18.3,57,16.9z
	 M57.8,24.8v31h-31v-2.1v-2.1V22.7c0-0.7,0.2-1.4,0.4-2.1h30.1c0.3,0.6,0.4,1.3,0.4,2.1V24.8z M7.2,31.4c0-0.4,0-0.7,0-1.1
	c0.3,0.1,0.7,0.3,1,0.5c1,0.5,2,1.2,4.1,1.2c2.1,0,3.2-0.6,4.1-1.2c0.8-0.5,1.6-0.9,3.1-0.9c1.5,0,2.3,0.4,3.1,0.9
	c0.6,0.3,1.2,0.7,2.1,0.9v2c-0.4-0.1-0.7-0.3-1-0.5c-1-0.5-2-1.2-4.1-1.2c-2.1,0-3.2,0.6-4.1,1.2c-0.8,0.5-1.6,0.9-3.1,0.9
	c-1.5,0-2.3-0.4-3.1-0.9c-0.6-0.3-1.2-0.7-2-0.9C7.2,32,7.2,31.7,7.2,31.4z M33,3.1c0-0.6,0.5-1,1-1h16.5c0.6,0,1,0.5,1,1v3.1H33
	V3.1z M49.5,8.3v4.1H35.1V8.3H49.5z M34.4,14.5h15.8l5.5,4.1H28.9L34.4,14.5z M12.4,3.1c0-0.6,0.5-1,1-1h8.3c0.6,0,1,0.5,1,1v3.1
	H12.4V3.1z M12.3,14l2.1-3.4V8.3h6.2v2.4l2.1,3.4c1.1,1.7,2,3.5,2.8,5.4c-0.5,1-0.8,2.1-0.8,3.3v6.9c-0.4-0.1-0.7-0.3-1-0.5
	c-1-0.5-2-1.2-4.1-1.2c-2.1,0-3.2,0.6-4.1,1.2c-0.8,0.5-1.6,0.9-3.1,0.9c-1.5,0-2.3-0.4-3.1-0.9c-0.5-0.3-1.1-0.6-1.9-0.9
	C7.9,23.1,9.6,18.3,12.3,14z M23.1,61.9c-0.7,0-1.3-0.3-1.8-0.7c-0.9-0.9-2-1.3-3.2-1.3h-1.2c-1.2,0-2.4,0.5-3.2,1.3
	c-0.5,0.5-1.1,0.7-1.8,0.7h-1c-2.7,0-4.8-2.2-4.8-4.8c0-0.7,0.2-1.5,0.5-2.2l0.7-1.5c1.2-2.4,1.8-5.1,1.8-7.8c0-1.1-0.1-2.2-0.3-3.3
	l-0.5-2.1c-0.5-1.9-0.9-3.8-1.1-5.7C7.7,34.6,8,34.8,8.3,35c1,0.5,2,1.2,4.1,1.2c2.1,0,3.2-0.6,4.1-1.2c0.8-0.5,1.6-0.9,3.1-0.9
	c1.5,0,2.3,0.4,3.1,0.9c0.6,0.3,1.2,0.7,2.1,0.9v20.9c0,1.7,0.6,3.3,1.6,4.6c-0.7,0.4-1.5,0.6-2.3,0.6H23.1z M52.6,61.9H32
	c-2.5,0-4.6-1.8-5.1-4.1h30.8C57.2,60.2,55.1,61.9,52.6,61.9z"/>
<path class="st3" d="M42.7,33.3l-0.4-0.5l-0.4,0.5l-3.3,4c0,0,0,0,0,0c0,0,0,0,0,0c-0.6,0.7-0.9,1.6-0.9,2.6c0,2.2,1.8,4,4,4h1.2
	c2.2,0,4-1.8,4-4c0-0.9-0.3-1.9-0.9-2.6c0,0,0,0,0,0L42.7,33.3z M42.9,44.9h-1.2c-2.8,0-5.1-2.3-5.1-5.1c0-1.2,0.4-2.3,1.2-3.3
	c0,0,0,0,0,0l4.5-5.4l4.5,5.4c0,0,0,0,0,0c0.8,0.9,1.2,2.1,1.2,3.3C48,42.6,45.7,44.9,42.9,44.9z"/>
</svg>
